assets/chatgpt.svg

<?xml version="1.0" encoding="UTF-8" standalone="no"?>
<!-- Created with Inkscape (http://www.inkscape.org/) -->

<svg width="132.29167mm" height="90.598679mm" viewBox="0 0 132.29167 90.598679" version="1.1" id="svg1" xmlns="http://www.w3.org/2000/svg" xmlns:svg="http://www.w3.org/2000/svg">
  <defs id="defs1" />
  <g id="layer1" transform="matrix(4.2118072,0,0,4.2118072,-246.11175,-279.3606)">
    <rect style="fill:#000000;fill-rule:evenodd;stroke:none;stroke-width:0.755147" id="rect1" width="31.409716" height="21.510643" x="58.433765" y="66.327965" rx="0" ry="0" />
    <path id="text1" style="font-weight:bold;font-size:9.60047px;line-height:1.25;font-family:'Liberation Sans';-inkscape-font-specification:'Liberation Sans Bold';letter-spacing:0px;word-spacing:0px;fill:#ffffff;stroke-width:0.342874" d="m 69.849606,69.216678 c -0.662885,0 -1.212846,0.549958 -1.212846,1.212845 V 83.83594 c 0,0.398917 0.179778,0.738269 0.527099,0.961182 0.173661,0.111456 0.410501,0.179292 0.652674,0.14211 0.242173,-0.03718 0.463915,-0.172483 0.63872,-0.359151 l 3.683497,-3.960999 3.683496,3.960999 c 0.174805,0.186668 0.396546,0.321971 0.63872,0.359151 0.242175,0.03718 0.478498,-0.03065 0.652157,-0.14211 0.347318,-0.222914 0.527616,-0.562265 0.527616,-0.961182 V 70.429523 c 0,-0.662887 -0.54996,-1.212845 -1.212846,-1.212845 H 74.13875 Z m 0,1.029394 h 4.289144 4.289143 c 0.110827,0 0.183452,0.07263 0.183452,0.183451 v 13.405384 h -5.17e-4 v 5.16e-4 h -5.17e-4 l -5.17e-4,5.17e-4 c -0.0037,0.0048 -0.01433,0.02879 -0.02584,0.05064 -0.0025,-0.0022 -0.003,-0.0025 -0.0031,-0.0026 -4.65e-4,-5.73e-4 -0.0023,-0.0025 -0.0067,-0.0072 l -4.435388,-4.767668 -4.435905,4.767668 c -0.0044,0.0047 -0.0057,0.0067 -0.0062,0.0072 l -5.16e-4,5.17e-4 c -5.09e-4,4.07e-4 -0.0013,9.23e-4 -0.0026,0.0021 -0.0115,-0.02186 -0.02321,-0.04636 -0.02687,-0.05116 v -5.16e-4 h -5.17e-4 V 70.429523 c 0,-0.110826 0.07263,-0.183451 0.183452,-0.183451 z m 4.422469,1.049548 c -1.062552,0 -1.873525,0.290504 -2.432927,0.871782 -0.559402,0.581279 -0.838708,1.414127 -0.838708,2.498555 0,1.081304 0.288977,1.923824 0.86713,2.526978 0.581279,0.600029 1.402931,0.899687 2.465483,0.899687 0.700034,0 1.300382,-0.154665 1.800407,-0.464055 0.503149,-0.312515 0.884211,-0.787188 1.143599,-1.424719 l -1.204577,-0.454753 c -0.325016,0.837541 -0.905014,1.256254 -1.739429,1.256254 -0.628156,0 -1.109448,-0.199944 -1.44384,-0.599963 -0.331266,-0.40002 -0.49661,-0.980017 -0.49661,-1.739429 0,-0.746911 0.160767,-1.314185 0.482658,-1.701705 0.325016,-0.387518 0.800206,-0.581359 1.425236,-0.581359 0.409395,0 0.764003,0.0987 1.064018,0.295589 0.30314,0.193759 0.506135,0.456283 0.609265,0.787549 l 1.219047,-0.332797 C 76.995943,72.53008 76.65354,72.073716 76.166016,71.764326 75.678492,71.45181 75.047113,71.29562 74.272075,71.29562 Z" />
  </g>
</svg>

<?xml version="1.0" encoding="UTF-8" standalone="no"?>
<!-- Created with Inkscape (http://www.inkscape.org/) -->

<svg width="31.409716mm" height="21.510643mm" viewBox="0 0 31.409716 21.510643" version="1.1" id="svg1" xmlns="http://www.w3.org/2000/svg" xmlns:svg="http://www.w3.org/2000/svg">
  <defs id="defs1" />
  <g id="layer1" transform="translate(-58.433765,-66.327965)">
    <rect style="fill:#000000;fill-rule:evenodd;stroke:none;stroke-width:0.755147" id="rect1" width="31.409716" height="21.510643" x="58.433765" y="66.327965" rx="0" ry="0" />
    <path id="text1" style="font-weight:bold;font-size:9.60047px;line-height:1.25;font-family:'Liberation Sans';-inkscape-font-specification:'Liberation Sans Bold';letter-spacing:0px;word-spacing:0px;fill:#ffffff;stroke-width:0.342874" d="M 69.849606 69.216678 C 69.186721 69.216678 68.63676 69.766636 68.63676 70.429523 L 68.63676 83.83594 C 68.63676 84.234857 68.816538 84.574209 69.163859 84.797122 C 69.33752 84.908578 69.57436 84.976414 69.816533 84.939232 C 70.058706 84.902052 70.280448 84.766749 70.455253 84.580081 L 74.13875 80.619082 L 77.822246 84.580081 C 77.997051 84.766749 78.218792 84.902052 78.460966 84.939232 C 78.703141 84.976412 78.939464 84.90858 79.113123 84.797122 C 79.460441 84.574208 79.640739 84.234857 79.640739 83.83594 L 79.640739 70.429523 C 79.640739 69.766636 79.090779 69.216678 78.427893 69.216678 L 74.13875 69.216678 L 69.849606 69.216678 z M 69.849606 70.246072 L 74.13875 70.246072 L 78.427893 70.246072 C 78.53872 70.246072 78.611345 70.3187 78.611345 70.429523 L 78.611345 83.834907 L 78.610828 83.834907 L 78.610828 83.835423 L 78.610311 83.835423 L 78.609794 83.83594 C 78.606127 83.840743 78.595461 83.864727 78.583956 83.886583 C 78.581478 83.884404 78.581002 83.884046 78.580856 83.883999 C 78.580391 83.883426 78.578576 83.881481 78.574138 83.876765 L 74.13875 79.109097 L 69.702845 83.876765 C 69.698433 83.881475 69.69711 83.883425 69.696643 83.883999 L 69.696127 83.884516 C 69.695618 83.884923 69.694843 83.885439 69.693543 83.886583 C 69.682038 83.864727 69.670338 83.840226 69.666671 83.835423 L 69.666671 83.834907 L 69.666154 83.834907 L 69.666154 70.429523 C 69.666154 70.318697 69.738783 70.246072 69.849606 70.246072 z M 74.272075 71.29562 C 73.209523 71.29562 72.39855 71.586124 71.839148 72.167402 C 71.279746 72.748681 71.00044 73.581529 71.00044 74.665957 C 71.00044 75.747261 71.289417 76.589781 71.86757 77.192935 C 72.448849 77.792964 73.270501 78.092622 74.333053 78.092622 C 75.033087 78.092622 75.633435 77.937957 76.13346 77.628567 C 76.636609 77.316052 77.017671 76.841379 77.277059 76.203848 L 76.072482 75.749095 C 75.747466 76.586636 75.167468 77.005349 74.333053 77.005349 C 73.704897 77.005349 73.223605 76.805405 72.889213 76.405386 C 72.557947 76.005366 72.392603 75.425369 72.392603 74.665957 C 72.392603 73.919046 72.55337 73.351772 72.875261 72.964252 C 73.200277 72.576734 73.675467 72.382893 74.300497 72.382893 C 74.709892 72.382893 75.0645 72.481597 75.364515 72.678482 C 75.667655 72.872241 75.87065 73.134765 75.97378 73.466031 L 77.192827 73.133234 C 76.995943 72.53008 76.65354 72.073716 76.166016 71.764326 C 75.678492 71.45181 75.047113 71.29562 74.272075 71.29562 z " />
  </g>
</svg>
